X: 6218
T: Carmel Gunning's
R: jig
M: 6/8
K: Dmajor
A|dB/c/d edc|dAG FED|F2d cAF|~E3 GFE|
DFA dAF|EGB efg|f2a gec|edc d2A|
dB/c/d edc|dAG FED|F2d cAF|~E3 GFE|
DFA dAF|e2A efg|f2a gec|edc d2f|
a^ga fdf|gfg ecA|fef gfg|ecA GFE|
DFA dAF|EGB efg|f2a gec|edc d2f|
a^ga fdf|gfg ecA|fef gfg|ecA GFE|
DFA dAF|e2A efg|f2a gec|edc d2|

